svgs/sharp-solid/file-invoice.svg

<svg xmlns="http://www.w3.org/2000/svg" viewBox="0 0 384 512"><!--! Font Awesome Pro 6.6.0 by @fontawesome - https://fontawesome.com License - https://fontawesome.com/license (Commercial License) Copyright 2024 Fonticons, Inc. --><path d="M224 0L0 0 0 512l384 0 0-352-160 0L224 0zm32 0l0 128 128 0L256 0zM80 64l64 0 16 0 0 32-16 0L80 96 64 96l0-32 16 0zm0 64l64 0 16 0 0 32-16 0-64 0-16 0 0-32 16 0zm0 96l224 0 16 0 0 16 0 96 0 16-16 0L80 352l-16 0 0-16 0-96 0-16 16 0zm16 96l192 0 0-64L96 256l0 64zm144 96l64 0 16 0 0 32-16 0-64 0-16 0 0-32 16 0z"/></svg>

<svg xmlns="http://www.w3.org/2000/svg" viewBox="0 0 384 512"><!--! Font Awesome Pro 6.4.2 by @fontawesome - https://fontawesome.com License - https://fontawesome.com/license (Commercial License) Copyright 2023 Fonticons, Inc. --><path d="M224 0H0V512H384V160H224V0zm32 0V128H384L256 0zM80 64h64 16V96H144 80 64V64H80zm0 64h64 16v32H144 80 64V128H80zm0 96H304h16v16 96 16H304 80 64V336 240 224H80zm16 96H288V256H96v64zm144 96h64 16v32H304 240 224V416h16z"/></svg>
